coreui/free/cil-resize-both.svg

<svg viewBox="0 0 512 512" xmlns="http://www.w3.org/2000/svg"><path d="M404.687 212.686l-50.51 50.51 -105.38-105.38 50.84-50.85 -26.98-26.98H79.99v192l27.31 27.31 50.98-50.99 105.37 105.37 -51.32 51.31 26.97 26.98H431.96v-192ZM399.997 400H262.624l46.3-46.3 -150.64-150.63 -46.3 46.29V111.987H249.35l-45.83 45.82 150.627 150.62 45.82-45.83Z"/></svg>

<svg xmlns="http://www.w3.org/2000/svg" viewBox="0 0 512 512">
  <path fill="var(--ci-primary-color, currentColor)" d="M404.687,212.686l-50.51,50.51L248.805,157.823l50.841-50.843L272.666,80H80V272l27.313,27.314,50.982-50.981L263.667,353.706l-51.313,51.313L239.333,432H432V240ZM400,400H262.627l46.3-46.294L158.295,203.078,112,249.373V112H249.373L203.55,157.823,354.177,308.451,400,262.627Z" class="ci-primary"/>
</svg>
